X:1
T:Rimsky-Korsakov harmonic exercises 19-
T:Rimsky-Korsakov harmonic exercises 19-20
T:Realizations by S. Shchetnikov
T:"Practical Manual of Harmony" (1885)
C:Realizations by S. Shchetnikov
%%score { ( 1 2 ) | ( 3 4 ) }
L:1/8
Q:1/2=130
M:2/1
K:C
V:1 treble nm="Piano" snm="Pno."
V:2 treble 
V:3 bass 
V:4 bass 
V:1
"""^Dominant seventh chord (root position)""^Examples by Rimsky-Korsakov:""_C:" f8"" e8 |] %1
"" d8"" c8 |]"" d8"" c8 |]"" B8"" c8 |]"""^incomplete V⁷:" B8"" c8 |] %5
[M:3/1]"""^V⁷ after I, I⁶, I⁶₄:""_C:" c8"" B8"" c8 |]"" e8"" d8"" c8 |]"" G8"" F8"" E8 |] %8
"" c8"" d8"" c8 |]"" c8"" B8"" c8 |]"" c8"" d8"" c8 |] %11
"""^V⁷ after IV, IV⁶, iv, iv⁶:""_C:" !courtesy!_A8"" G8"" G8 |]"" f8-"" f8"" e8 |] %13
"" f8"" d8"" c8 |][M:2/1]"^V⁷ after V:"[Q:1/2=90]"_C:" B8 c8 |] B4 d4 c8 |]"" d4"" f4"" e8 |] %17
"" B4"" f4"" e8 |]"" G4"" f4"" e8 |]"^Deceptive cadence:""_C:" B8 c8 |] d8 c8 |] G8 c8 |] f8 e8 |] %23
[M:2/4]"""^Example 19 by Rimsky-Korsakov:"[Q:1/4=70]"_C:" c2"" B2 |"" c2"" g2 |"" f2"" f2 | %26
"" e2"" f2 |"""" d4 |"""" c4 |"" e2"""" d2 |"" c4 |] z4 | z4 | z4 | z4 | z4 | z4 | z4 | z4 |] %39
"""^Realization 19.1""_C:" c2"" f2 |"" f2"" e2 |"" d2"" c2 |"" c2"" B2 |"" c2 e2 |"" f2"" _a2 | %45
"" g2"" B2 |"" c4 |] %47
[M:3/1]"""^Dominant seventh chord (all inversions)""^Examples by Rimsky-Korsakov:"[Q:1/2=130]"_C:" c8"" d8"" c8 |] %48
"" !courtesy!_A8"" G8"" G8 |]"" g8"" f8"" e8 |]"" d8"" d8"" c8 |]"""_C:" c8"" B8"" c8 |] %52
"" c8"" B8"" c8 |]"" g8"" f8"" e8 |]"" !courtesy!_A8"" G8"" G8 |]"" d8"" B8"" c8 |] %56
"""_C:" c8"" B8"" c8 |]"" !courtesy!_A8"" G8"" G8 |]"" G8"" G8"" G8 |]"" d8"" B8"" c8 |] %60
"" d8"" B8"" c8 |]"""_C:""^Leap to seventh of the chord:" c8"" f8"" e8 |]"" G8"" B8"" c8 |] %63
"" c8"" B8"" c8 |]"" c8"" f8"" e8 |]"" c8"" f8"" e8 |][M:2/1]"""^Other leaps:""_C:" B8"" c8 |] %67
"" G8"" c8 |]"" d8"" g8 |] %69
[M:6/1]"""^Change of inversion (seventh doesn't move):" d8"" d8"" B8"" G8"" G8"" G8 |] %70
[M:3/1]"""^Exchange of seventh and fifths of the chord:""_C:" f8"" d8"" c8 |]"" B8"" B8"" c8 |] %72
"" f8"" d8"" g8 |][M:4/1]"""^V² after I⁶₄:" f8"" e8"" d8"" g8 |] %74
[M:3/4]""[Q:1/4=70]"^Example 20 by Rimsky-Korsakov:""_C:" c2"" B2"" c2 |"" _A2"" G2"" c2 | %76
"" c2"" B2"" c2 |"""" f4"" e2 |"" f2"" d2"" f2 |"" e2"" c2"" d2 |"" c2"""" B4 |"" c6 |] %82
[K:G][M:2/4] z4 | z4 | z4 | z4 | z4 | z4 | z4 | z4 |]"""^Realization 20.1""_G:" B2"" G2 | %91
"" c2"" A2 |"" d2"" c2 |"" B2"" d2 |"""" c4 |"" B2"" A2 |"" G2"" F2 |"" G4 |] %98
V:2
 B8 G8 |] F8 E8 |] B8 G8 |] F8 E8 |] F8 E8 |][M:3/1] E8 F8 E8 |] G8 F8 E8 |] C8 B,8 C8 |] %8
 G8 F8 E8 |] E8 F8 E8 |] E8 F8 E8 |] F8- F8 E8 |] c8 B8 c8 |] c8 B8 c8 |][M:2/1] D8 C8 |] %15
 G4 F4 E8 |] G8 G8 |] G8 G8 |] D4 B4 G8 |]"" G4"" F4"" E8 |]"" F8"" E8 |]"" F8"" E8 |]"" B8"" c8 |] %23
[M:2/4] E2 F2 | E2 G2 | _A2 G2 | G2 F2 | G2 B2 | c2 F2 | G2 GF | E4 |] x4 | x4 | x4 | x4 | x4 | %36
 x4 | x4 | x4 |] G2 F2 | G4 | G4 | _A2 G2 | G2 c2 | c4 | c2 G2 | G4 |][M:3/1] E8 F8 E8 |] %48
 F8- F8 E8 |] G8 G8 G8 |] G8 F8 E8 |] E8 F8 E8 |] C8 F8 E8 |] G8 G8 G8 |] F8- F8 E8 |] G8 F8 E8 |] %56
 G8 G8 G8 |] F8 D8 C8 |] D8 D8 C8 |] G8 D8 C8 |] !courtesy!_A8 G8 G8 |] G8 G8 G8 |] C8 F8 E8 |] %63
 G8 G8 G8 |] G8 G8 G8 |] G8 G8 G8 |][M:2/1] F8 E8 |] D8 C8 |] G8 G8 |] %69
[M:6/1] F8- F8- F8- F8- F8 E8 |][M:3/1] B8 B8 c8 |] F8 D8 C8 |] G8 G8 G8 |][M:4/1] F8 G8 G8 G8 |] %74
[M:3/4] G6 | F4 E2 | F2 D2 G2 | G6 | F2 G4 | G4 _A2 | G4 F2 | E6 |][K:G][M:2/4] x4 | x4 | x4 | x4 | %86
 x4 | x4 | x4 | x4 |] G4 | G2 F2 | G2 F2 | G4 | A2 F2 | G2 _E2 | D2 C2 | B,4 |] %98
V:3
 D8 C8 |] B,8 G,8 |] F8 E8 |] D8 C8 |] G,8 G,8 |][M:3/1] G,8 G,8 G,8 |] C8 B,8 C8 |] G,8 G,8 G,8 |] %8
 C8 B,8 C8 |] G,8 G,8 G,8 |] G,8 B,8 C8 |] C8 B,8 C8 |] F8 G8 G8 |] F8- F8 E8 |] %14
[M:2/1]"" G,4"" F,4"" E,8 |]"" D4"" B,4"" C8 |] B,8 C8 |] D4 B,4 C8 |] B,4 D4 C8 |] D8 C8 |] %20
 B,8 C8 |] B,8 C8 |] G8 C8 |][M:2/4] G,4 | G,2 C2 | C2 B,2 | C4 | B,2 F2 | E2 C2 | C2 B,2 | C4 |] %31
"^Exercise 19.1" C,2 _A,2 | G,2 C,2 | B,,2 C,2 | F,2 G,2 | C,4 | _A,,2 F,,2 | G,,4 | C,4 |] E2 C2 | %40
 B,2 C2 | D2 E2 | F4 | E2 G2 | F4 | E2 F2 | E4 |][M:3/1] G,8 G,8 G,8 |] C8 D8 C8 |] D8 D8 C8 |] %50
 B,8 G,8 G,8 |] G,8 G,8 G,8 |] G,8 G,8 G,8 |] C8 B,8 C8 |] C8 B,8 C8 |] G,8 G,8 G,8 |] C8 D8 C8 |] %57
 C8 B,8 C8 |] B,8 B,8 C8 |] B,8 G,8 G,8 |] D8 D8 C8 |] E8 D8 C8 |] G,8 G,8 G,8 |] E8 D8 C8 |] %64
 C8 D8 C8 |] E8 B,8 C8 |][M:2/1] G,8 C8 |] B,8 G,8 |] B,8 C8 |][M:6/1] B,8 G,8 G,8 D8 B,8 C8 |] %70
[M:3/1] D8 F8 E8 |] G,8 G,8 G,8 |] B,8 B,8 C8 |][M:4/1] C8 C8 B,8 C8 |][M:3/4] E2 D2 C2 | %75
 C2 B,2 C2 | _A,2 G,4 | B,2 D2 C2 | C2 B,2 D2 | C2 G2 F2 | E2 D4 | C6 |] %82
[K:G][M:2/4]"^Exercise 20.1" G,2 B,,2 | _E,2 D,C, | B,,2 A,,2 | G,,2 B,,2 | F,,2 A,,2 | G,,2 C,2 | %88
 D,4 | G,,4 |] D4 | C2 D2 | D4 | D4 | D4 | D2 C2 | B,2 A,2 | G,4 |] %98
V:4
 G,,8 C,8 |] G,,8 C,8 |] G,8 C8 |] G,8 C,8 |] G,8 C,8 |][M:3/1] C,8 G,,8 C,8 |] C,8 G,8 C,8 |] %7
 E,8 G,8 C,8 |] E,8 G,8 C,8 |] G,,8 G,,8 C,8 |] G,,8 G,,8 C,8 |] F,8 G,8 C,8 |] %12
 !courtesy!_A,8 G,8 C8 |] !courtesy!_A,8 G,8 C,8 |][M:2/1] G,,8 C,8 |] G,8 C,8 |] G,8 C,8 |] %17
 G,8 C,8 |] G,4 G,,4 C,8 |] G,8 A,8 |] G,8 A,8 |] G,8 A,8 |] G,8 A,8 |][M:2/4] C,2 G,2 | C,2 E,2 | %25
 F,2 G,2 | C,2 _A,,2 | G,,2 G,2 | C,2 _A,2 | G,4 | C,4 |] x4 | x4 | x4 | x4 | x4 | x4 | x4 | x4 |] %39
 C,2 _A,2 | G,2 C,2 | B,,2 C,2 | F,2 G,2 | C,4 | _A,,2 F,,2 | G,,4 | C,4 |][M:3/1] C,8 B,,8 C,8 |] %48
 F,8 B,,8 C,8 |] B,,8 B,,8 C,8 |] G,,8 B,,8 C,8 |] C,8 D,8 C,8 |] E,8 D,8 C,8 |] E,8 D,8 C,8 |] %54
 F,8 D,8 C,8 |] B,,8 D,8 C,8 |] E,8 F,8 E,8 |] F,8- F,8 E,8 |] G,8 F,8 E,8 |] G,,8 F,8 E,8 |] %60
 F,8- F,8 E,8 |] C,8 B,,8 C,8 |] E,8 D,8 C,8 |] C,8 F,8 E,8 |] E,8 B,,8 C,8 |] C,8 D,8 E,8 |] %66
[M:2/1] D,8 C,8 |] F,8 E,8 |] F,8 E,8 |][M:6/1] G,,8 B,,8 D,8 B,,8 G,,8 C,8 |][M:3/1] G,8 G,8 C8 |] %71
 D,8 F,8 E,8 |] D,8 F,8 E,8 |][M:4/1] A,8 G,8 F,8 E,8 |][M:3/4] C,2 F,2 E,2 | F,2 D,2 C,2 | %76
 F,4 E,2 | D,2 B,,2 C,2 | _A,,2 G,,2 B,,2 | C,2 E,2 F,2 | G,2 G,,4 | C,6 |][K:G][M:2/4] x4 | x4 | %84
 x4 | x4 | x4 | x4 | x4 | x4 |] G,2 B,,2 | _E,2 D,""C, | B,,2 A,,2 | G,,2 B,,2 | F,,2 A,,2 | %95
 G,,2 C,2 | D,4 | G,,4 |] %98

